src/sources/forus-webshop/resources/_webshop-common/assets/img/icon-menu/icon-menu-my-profile2.svg

<svg viewBox="0 0 20 20" xmlns="http://www.w3.org/2000/svg" fill-rule="evenodd" clip-rule="evenodd" stroke-linejoin="round" stroke-miterlimit="2"><path d="M10.012.685c-5.527 0-10 4.308-10 9.618 0 2.668 1.128 5.075 2.942 6.815.112.108.32.08.395-.054.855-1.479 2.35-2.642 4.172-3.2-1.193-.767-1.973-2.083-1.973-3.561 0-2.371 2.001-4.291 4.464-4.291 2.462 0 4.464 1.92 4.464 4.29 0 1.488-.78 2.795-1.974 3.562 1.823.568 3.318 1.721 4.174 3.2.075.135.281.162.394.054 1.823-1.74 2.942-4.156 2.942-6.815 0-5.31-4.484-9.618-10-9.618z" fill="#939698" fill-rule="nonzero"/><g transform="matrix(.99998 0 0 1 .012 -.09)"><clipPath id="a"><path d="M10 0C4.48 0 0 4.48 0 10s4.48 10 10 10 10-4.48 10-10S15.52 0 10 0zm1 15H9V9h2v6zm0-8H9V5h2v2z"/></clipPath><g clip-path="url(#a)"><g transform="matrix(.99944 0 0 .9955 0 .09)"><clipPath id="b"><path d="M0 0h20v20H0z"/></clipPath></g></g></g></svg>

<?xml version="1.0" encoding="UTF-8" standalone="no"?>
<!DOCTYPE svg PUBLIC "-//W3C//DTD SVG 1.1//EN" "http://www.w3.org/Graphics/SVG/1.1/DTD/svg11.dtd">
<svg width="100%" height="100%" viewBox="0 0 20 20" version="1.1" xmlns="http://www.w3.org/2000/svg" xmlns:xlink="http://www.w3.org/1999/xlink" xml:space="preserve" xmlns:serif="http://www.serif.com/" style="fill-rule:evenodd;clip-rule:evenodd;stroke-linejoin:round;stroke-miterlimit:2;">
    <g transform="matrix(0.799984,0,0,0.8,-0.388015,0.0845427)">
        <path d="M13,0.75C6.092,0.75 0.5,6.136 0.5,12.773C0.5,16.108 1.91,19.117 4.177,21.292C4.318,21.427 4.577,21.393 4.671,21.224C5.74,19.376 7.608,17.922 9.887,17.224C8.395,16.266 7.42,14.621 7.42,12.773C7.42,9.809 9.922,7.409 13,7.409C16.078,7.409 18.581,9.809 18.581,12.773C18.581,14.632 17.605,16.266 16.113,17.224C18.392,17.934 20.261,19.376 21.33,21.224C21.424,21.393 21.682,21.427 21.823,21.292C24.102,19.117 25.5,16.097 25.5,12.773C25.5,6.136 19.896,0.75 13,0.75Z" style="fill:rgb(147,150,152);fill-rule:nonzero;"/>
    </g>
    <g transform="matrix(0.999981,0,0,1,0.0115414,-0.0900082)">
        <g>
            <clipPath id="_clip1">
                <path d="M10,0C4.48,0 0,4.48 0,10C0,15.52 4.48,20 10,20C15.52,20 20,15.52 20,10C20,4.48 15.52,0 10,0ZM11,15L9,15L9,9L11,9L11,15ZM11,7L9,7L9,5L11,5L11,7Z"/>
            </clipPath>
            <g clip-path="url(#_clip1)">
                <g transform="matrix(0.999437,0,0,0.9955,0.000451644,0.0900082)">
                    <clipPath id="_clip2">
                        <rect id="_Image2_" serif:id="_Image2" x="0" y="0" width="20" height="20"/>
                    </clipPath>
                    <g clip-path="url(#_clip2)">
                        <g transform="matrix(1.00058,-0,-0,1.00452,-0.012,0)">
                        </g>
                    </g>
                </g>
            </g>
        </g>
    </g>
</svg>
